X:1
T:Title
%%score { ( 1 4 5 ) | ( 2 3 ) }
L:1/8
M:3/4
K:Bb
V:1 treble nm="Grand Piano"
V:4 treble 
V:5 treble 
V:2 bass 
V:3 bass 
V:1
 z2 z2[Q:1/4=100] .[B,DF]2 | [Fd]>[=E_d] [F=d]2 [FB]2 | (3cBG [DF]2 [DB]d | c>c B2 c2 | z2 z2 d2 | %5
 [Ge]>[B,EG] [B,EG]2 .[B,GB]2 | [Fd]>[DF] [DF]2 [DB]d | c>c c2 Gc | B>B A2 Bc | d3 B dc | %10
[M:2/4] [B,DB]4 |[M:1/4] B>A |[M:3/4] [EG]4 z2 | [DF]4 z2 | d4 z2 |[M:2/4] [B,DB]4 |] %16
V:2
 z2 z2 z B | [B,,B,]>[B,,B,] [B,,B,]2 [D,B,]2 | (3:2:2[E,B,E]2 [E,B,E] [B,,B,]2 z[K:treble] F | %3
 [F,A,F]>[K:bass][F,A,E] [G,B,D]2 [F,A,F]2 | [B,,B,]4 [B,,B,]2 | [E,B,]>E, E,2 z[K:treble] e | %6
 [B,,B,]>[B,,B,] [B,,B,]2 z F | [E,G,E]>[E,G,E] [E,G,E]2 [B,E][K:treble][EG] | %8
 [F,DF]>[F,DF] [F,CF]2 D=E | [F,B,F]3 [F,B,D] [F,A,E][F,A,E] |[M:2/4] B,,4 |[M:1/4][K:treble] G>F | %12
[M:3/4][K:bass] E,E, E,2[K:treble] G>E | z2 z2 [G,B,]2 | F-[F,F-] FD EE |[M:2/4] B,,4 |] %16
V:3
 z2 z2 B,,2 | x6 | z2 z2 [B,,B,]2[K:treble] | x3/2[K:bass] x9/2 | x6 | z2 z2 E,2[K:treble] | %6
 z2 z2 [B,,B,]2 | z2 z2 E,2[K:treble] | z2 z2 [G,B,]2 | x6 |[M:2/4] x4 |[M:1/4][K:treble] x2 | %12
[M:3/4][K:bass] x4[K:treble] x2 | B,,B,, B,,2 D=E | .[F,B,]2 F,2 [F,A,]2 |[M:2/4] x4 |] %16
V:4
 x6 | x6 | x6 | x6 | [Fd]4 F_A | x6 | x6 | x6 | x6 | x6 |[M:2/4] x4 |[M:1/4] x2 | %12
[M:3/4] B,B, B,2 B>G | B,B, B,2 Bc | z B, z B dc |[M:2/4] x4 |] %16
V:5
 x6 | x6 | x6 | x6 | x6 | x6 | x6 | x6 | x6 | x6 |[M:2/4] x4 |[M:1/4] x2 |[M:3/4] x6 | x6 | %14
 z2 B,2 z2 |[M:2/4] x4 |] %16

